X: 7995
T:Vals fr\aa{}n Orsa
R:Waltz
Q:1/4=192
O:Sweden
M:3/4
A:Orsa
K:D
V:1
DF|\
A4A2| AB AG FA| {c}d3c de| d2 cA de|\
f4a2| a2 gf ec| Ac eg fe| d2 Bd BG|
{G}A4 A2| AB AG FA| d3c de| d2cA de|\
f3e fa| a2 gf ec| Ac eg fe| d4:|
|: g2|\
b2 gb gb| ba fd fa| ab ag ec| A2 df a2|\
b2gb gb| a2 fd fa| ab ag ec| d4:|
|: A2|\
A2 d2g2| f3e (d2| d2) gb gb| ab af (d2|\
d)e =f2 f2| e3d =c2| B2 Bd BG| A4 (A2|
A2) f2 a2| g3f g2| A2 d2 f2| e3d e2|\
AB c2d2| B3A B2| ab ag ec| d4:|
V:2
A,D|\
D4F2|FG FE DF| A4AB| A2F2A2| \
d4f2| f2 ed cB| AB AG EG| F2D2B,2|\
A,4F2| FG FE DF| A4AB| A2F2A2| \
d4f2| f2 ed cB| AB AG EG| F4 :|\
|:A2|\
DG BG BG| F2DF Ad| cB AG EG| F2DF AF|\
DG BG BG| F2DF Ad| cB AG EG| F4:|\
|:FE|\
D2A2G2| A3G (F2|F2)Ad Bd| AB AG (F2|\
F)A d2d2| =c(A A2)(A2|A2)GF ED |[A,4E4]E2|\
F2A2d2|e3de2| D2F2A2| c3Bc2| \
AB c2d2| B3^G G2| AB AG EC| D4:|
